packages/reown_appkit/lib/modal/assets/light/telegram_logo.svg

<svg width="32" height="32" viewBox="0 0 32 32" fill="none" xmlns="http://www.w3.org/2000/svg">
<g clip-path="url(#clip0_365_3974)">
<rect width="32" height="32" fill="url(#paint0_linear_365_3974)"/>
<path fill-rule="evenodd" clip-rule="evenodd" d="M7.03415 15.2523C12.0094 13.0846 15.3271 11.6556 16.9871 10.9651C21.7266 8.99377 22.7115 8.65132 23.3534 8.64001C23.4946 8.63753 23.8103 8.67252 24.0147 8.83844C24.1874 8.97854 24.2349 9.16779 24.2576 9.30062C24.2804 9.43345 24.3087 9.73605 24.2862 9.97248C24.0293 12.6711 22.918 19.22 22.3526 22.2425C22.1134 23.5215 21.6423 23.9503 21.1863 23.9923C20.1952 24.0835 19.4426 23.3373 18.4826 22.7081C16.9806 21.7234 16.132 21.1105 14.6739 20.1497C12.9889 19.0393 14.0812 18.429 15.0415 17.4316C15.2928 17.1705 19.6596 13.1986 19.7441 12.8383C19.7547 12.7932 19.7645 12.6253 19.6647 12.5366C19.5649 12.4479 19.4177 12.4782 19.3114 12.5023C19.1607 12.5365 16.7611 14.1226 12.1125 17.2605C11.4314 17.7282 10.8145 17.9561 10.2617 17.9441C9.65237 17.931 8.48019 17.5996 7.60879 17.3163C6.53999 16.9689 5.69053 16.7852 5.7645 16.1952C5.80303 15.8879 6.22625 15.5735 7.03415 15.2523Z" fill="white"/>
</g>
<path d="M0.5 16C0.5 7.43959 7.43959 0.5 16 0.5C24.5604 0.5 31.5 7.43959 31.5 16C31.5 24.5604 24.5604 31.5 16 31.5C7.43959 31.5 0.5 24.5604 0.5 16Z" stroke="#141414" stroke-opacity="0.05"/>
<defs>
<linearGradient id="paint0_linear_365_3974" x1="1600" y1="0" x2="1600" y2="3176.27" gradientUnits="userSpaceOnUse">
<stop stop-color="#2AABEE"/>
<stop offset="1" stop-color="#229ED9"/>
</linearGradient>
<clipPath id="clip0_365_3974">
<path d="M0 16C0 7.16344 7.16344 0 16 0C24.8366 0 32 7.16344 32 16C32 24.8366 24.8366 32 16 32C7.16344 32 0 24.8366 0 16Z" fill="white"/>
</clipPath>
</defs>
</svg>

<svg width="32" height="32" fill="none" xmlns="http://www.w3.org/2000/svg" viewBox="0 0 32 32">
  <g clip-path="url(#a)">
    <path fill="url(#b)" d="M0 0h32v32H0z"/>
    <path fill-rule="evenodd" clip-rule="evenodd" d="M7.034 15.252c4.975-2.167 8.293-3.596 9.953-4.287 4.74-1.971 5.725-2.314 6.366-2.325.142-.002.457.033.662.198.172.14.22.33.243.463.022.132.05.435.028.671-.257 2.7-1.368 9.248-1.933 12.27-.24 1.28-.71 1.708-1.167 1.75-.99.091-1.743-.655-2.703-1.284-1.502-.985-2.351-1.598-3.81-2.558-1.684-1.11-.592-1.721.368-2.718.252-.261 4.619-4.233 4.703-4.594.01-.045.02-.213-.08-.301-.1-.09-.246-.059-.353-.035-.15.034-2.55 1.62-7.198 4.758-.682.468-1.298.696-1.851.684-.61-.013-1.782-.344-2.653-.628-1.069-.347-1.918-.53-1.845-1.12.039-.308.462-.623 1.27-.944Z" fill="#fff"/>
  </g>
  <path d="M.5 16C.5 7.44 7.44.5 16 .5 24.56.5 31.5 7.44 31.5 16c0 8.56-6.94 15.5-15.5 15.5C7.44 31.5.5 24.56.5 16Z" stroke="#141414" stroke-opacity=".05"/>
  <defs>
    <linearGradient id="b" x1="1600" y1="0" x2="1600" y2="3176.27" gradientUnits="userSpaceOnUse">
      <stop stop-color="#2AABEE"/>
      <stop offset="1" stop-color="#229ED9"/>
    </linearGradient>
    <clipPath id="a">
      <path d="M0 16C0 7.163 7.163 0 16 0s16 7.163 16 16-7.163 16-16 16S0 24.837 0 16Z" fill="#fff"/>
    </clipPath>
  </defs>
</svg>
